X:147
%%etbk:tnset id:52,pos:1,rep:3x,ant:,targ:Ceili,env:Toe for Toe
%%etbk:tnset id:257,pos:3,rep:2x,ant:
%%etbk:wsite http://www.thesession.org/tunes/display/50
%%etbk:skill ?
%%etbk:pldat 2013-10-30T17:37,2013-10-29T17:09,2013-10-27T14:06,2013-10-17T18:57,2013-10-14T18:19,2013-10-11T18:31,2013-10-07T17:49
T: Jackie Coleman's
Z: Piano Box Version by Martin Fleischmann
H: Created 2013-02-19 /  Last Modified 2013-02-19
M: 4/4
L: 1/8
R: reel
K: Dmaj
|:!5!A2!3!FF !2!E!1!D!2!B,!1!D | !2!F2 !4!AF !5!BFAF | !1!E2!3!BE !5!dEBE | !2!A!3!B!5!d!2!e !3!fe!1!d!2!B |
!1!A2!3!FF !2!E!1!D!2!B,!1!D | !2!F2!4!AF !5!BFAF | !1!E2!3!BE !5!dEBE |1 !2!AB!5!d!2!e !3!f!1!dd!2!B:|2 !2!AB!5!d!2!e !3!f!1!d d2:|
|:!3!f!1!dd!2!c !1!d2de | !3!f!1!d!2!d!1!d !1!d!3!f!5!a!3!f | !2!e2!1!AA !4!gA!3!fA | !2!eAzA !2!B!5!d!2!e!4!g |
!3!f!1!dd!2!c !1!d2de | !3!f!1!d !3!(3d!2!d!1!d !1!df!5!af | !4!g2 g!3!f !1!g!3!ba!1!g |1 !3!fgef !1!d3e:||2 !3!fgef !1!d3!2!B:|
